X:1
T:Brighton Camp
M:2/4
L:1/8
K:F
f/2-e/2| dc AF| GF D z/2 E/2| FFF/2-G/2A/2-B/2| c2 Af| dc AF| GF D3/2 F/2|\
 EG CD/2-E/2| F2 Fc/2-B/2| Ac de| fc A3/2 F/2| Ac de| f2 e f/2e/2|\
 dc AF| GF D F/2F/2| EG CD/2-E/2| F2 F||
